X: 25996
T: Mayo Lasses, The
R: reel
M: 4/4
K: Gmajor
EB3 eBdB|ABGA Bdd2|eB3 egdB|ABGA BG3|
eB3 egd2|A2GA BddB|G2(3Bcd egdB|A2GA BGG2||
g3d edBd|g2bg ea3|g2gd egdB|ABGA AG (3Bcd|
gfgd ed (3Bcd|g2bg eaab|bgag egd2|ABGA BGG2||

